;TIME:8386.43
;Filament used:14.37106m
;Layer height:0.200
; HEADER_BLOCK_START
; generated by Creality_Print V5.1.6.10470 on 2025-08-06 at 14:20:27
; total layer number: 100
; filament_density: 0
; filament_diameter: 1.75
; max_z_height: 20.00
; HEADER_BLOCK_END

; MINX = 25.97
; MINY = 27.24
; MINZ = -0.00
; MAXX = 194.03
; MAXY = 192.76
; MAXZ = 20.00

; THUMBNAIL_BLOCK_START

;
; THUMBNAIL_BLOCK_END

; THUMBNAIL_BLOCK_START

;
; THUMBNAIL_BLOCK_END

; external perimeters extrusion width = 0.42mm
; perimeters extrusion width = 0.45mm
; infill extrusion width = 0.45mm
; solid infill extrusion width = 0.42mm
; top infill extrusion width = 0.42mm
; support material extrusion width = 0.38mm
; first layer extrusion width = 0.46mm

; EXECUTABLE_BLOCK_START
M73 P0 R139
M201 X5000 Y5000 Z500 E5000
M203 X500 Y500 Z30 E100
M204 P5000 R2500 T5000 ; sets acceleration (P, T) and retract acceleration (R), mm/sec^2
M205 X10.00 Y10.00 Z0.40 E5.00 ; sets the jerk limits, mm/sec
;TYPE:Custom
M220 S100 ;Reset Feedrate 
M221 S100 ;Reset Flowrate 
 
M140 S85 ;Set final bed temp 
G28 ;Home 
 
G92 E0 ;Reset Extruder 
G1 Z2.0 F3000 ;Move Z Axis up 
M104 S240 ;Set final nozzle temp 
G1 X-2.1 Y20 Z0.28 F5000.0 ;Move to start position 
M190 S85 ;Wait for bed temp to stabilize 
M109 S240 ;Wait for nozzle temp to stabilize 
G1 X-2.1 Y145.0 Z0.28 F1500.0 E15 ;Draw the first line 
G1 X-2.4 Y145.0 Z0.28 F5000.0 ;Move to side a little 
G1 X-2.4 Y20 Z0.28 F1500.0 E30 ;Draw the second line 
G92 E0  ;Reset Extruder 
G1 E-1.0000 F1800 ;Retract a bit 
G1 Z2.0 F3000 ;Move Z Axis up 
G1 E0.0000 F1800
G90
G21
M83 ; use relative distances for extrusion
M106 S0
;LAYER_CHANGE
;Z:0.2
;HEIGHT:0.2
;BEFORE_LAYER_CHANGE
;0.2
G92 E0

G1 E-1.2 F2100
;_SET_FAN_SPEED_CHANGING_LAYER
M204 P500
M205 X8 Y8
; printing object ailettes.step id:140734218475930 copy 0
M204 T500
G1 Z.4 F9000
G1 X90.138 Y107.031
G1 Z.4
G1 Z.2
G1 E1.2 F2100
;TYPE:Inner wall
;WIDTH:0.459999
G1 F1800
G1 X90.164 Y106.947 E.00301
G1 X90.267 Y105.603 E.0458
G1 X90.454 Y104.303 E.04465
G1 X90.8 Y102.759 E.05379
G1 X91.089 Y101.731 E.03628
G1 X91.069 Y101.419 E.01062
G1 X90.917 Y101.169 E.00996
G1 X84.283 Y94.494 E.31981
G1 X36.292 Y66.787 E1.88339
G1 X37.645 Y64.443 E.09196
G1 X85.636 Y92.151 E1.88339
G1 X94.803 Y94.577 E.32228
G1 X95.115 Y94.539 E.01069
G1 X95.337 Y94.394 E.00898
G1 X96.239 Y93.47 E.0439
G1 X97.216 Y92.591 E.04467
G1 X98.249 Y91.779 E.04465
G1 X99.424 Y90.969 E.0485
G1 X99.588 Y90.733 E.00976
G1 X99.631 Y90.449 E.00978
G1 X98.84 Y81.072 E.31981
G1 X79.886 Y28.999 E1.88339
G1 X82.429 Y28.073 E.09196
G1 X101.382 Y80.147 E1.88339
G1 X106.844 Y87.896 E.32223
G1 X107.104 Y88.067 E.01055
G1 X107.377 Y88.1 E.00935
G1 X108.657 Y87.973 E.04372
G1 X109.97 Y87.927 E.04467
G1 X111.004 Y87.96 E.03517
G1 X112.695 Y88.103 E.05766
G1 X112.981 Y88.029 E.01006
G1 X113.197 Y87.838 E.00978
G1 X118.618 Y80.147 E.31981
G1 X137.571 Y28.073 E1.88339
G1 X140.114 Y28.999 E.09196
G1 X121.16 Y81.072 E1.88339
G1 X120.363 Y90.52 E.32223
G1 X120.452 Y90.817 E.01055
G1 X120.639 Y91.018 E.00932
G1 X121.751 Y91.779 E.04579
G1 X122.784 Y92.591 E.04465
G1 X123.949 Y93.662 E.05379
G1 X124.694 Y94.426 E.03628
G1 X124.974 Y94.565 E.01062
G1 X125.267 Y94.559 E.00996
G1 X134.364 Y92.151 E.31981
G1 X182.355 Y64.443 E1.88339
G1 X183.708 Y66.787 E.09196
G1 X135.717 Y94.494 E1.88339
G1 X129.032 Y101.22 E.32228
G1 X128.909 Y101.51 E.01069
G1 X128.924 Y101.778 E.00913
G1 X129.287 Y103.076 E.0458
G1 X129.556 Y104.362 E.04465
G1 X129.739 Y105.663 E.04467
G1 X129.847 Y107.025 E.04644
G1 X129.968 Y107.286 E.00978
G1 X130.194 Y107.465 E.00978
G1 X138.709 Y111.468 E.31981
G1 X193.283 Y121.091 E1.88339
G1 X192.813 Y123.756 E.09196
G1 X138.24 Y114.133 E1.88339
G1 X128.797 Y114.988 E.32223
G1 X128.52 Y115.128 E.01055
G1 X128.355 Y115.347 E.00932
G1 X127.799 Y116.574 E.0458
G1 X127.178 Y117.732 E.04465
G1 X126.626 Y118.615 E.0354
G1 X125.693 Y119.952 E.05541
G1 X125.614 Y120.237 E.01006
G1 X125.671 Y120.519 E.00978
G1 X129.622 Y129.059 E.31981
G1 X165.242 Y171.51 E1.88339
G1 X163.169 Y173.249 E.09196
G1 X127.549 Y130.799 E1.88339
G1 X119.766 Y125.384 E.32223
G1 X119.464 Y125.313 E.01055
G1 X119.197 Y125.374 E.00932
G1 X117.982 Y125.957 E.04579
G1 X116.762 Y126.445 E.04465
G1 X115.252 Y126.918 E.05379
G1 X114.217 Y127.182 E.03628
G1 X113.957 Y127.355 E.01062
G1 X113.816 Y127.612 E.00996
G1 X111.353 Y136.693 E.31981
G1 X111.353 Y192.109 E1.88339
G1 X108.647 Y192.109 E.09196
G1 X108.647 Y136.693 E1.88339
G1 X106.165 Y127.542 E.32228
G1 X105.975 Y127.291 E.01069
G1 X105.74 Y127.171 E.00898
G1 X104.488 Y126.852 E.0439
G1 X103.238 Y126.445 E.04467
G1 X102.018 Y125.957 E.04465
G1 X100.729 Y125.345 E.0485
G1 X100.443 Y125.319 E.00976
G1 X100.176 Y125.425 E.00978
G1 X92.451 Y130.799 E.31981
G1 X56.831 Y173.249 E1.88339
G1 X54.758 Y171.51 E.09196
M73 P0 R138
G1 X90.378 Y129.059 E1.88339
G1 X94.359 Y120.454 E.32223
G1 X94.376 Y120.144 E.01055
G1 X94.269 Y119.891 E.00935
G1 X93.518 Y118.846 E.04372
G1 X92.822 Y117.732 E.04467
G1 X92.333 Y116.82 E.03516
G1 X91.612 Y115.284 E.05766
G1 X91.405 Y115.073 E.01006
G1 X91.132 Y114.982 E.00978
G1 X81.76 Y114.133 E.31981
G1 X27.187 Y123.756 E1.88339
G1 X26.717 Y121.091 E.09196
G1 X81.291 Y111.468 E1.88339
G1 X89.871 Y107.435 E.32223
G1 X90.084 Y107.209 E.01055
G1 X90.126 Y107.07 E.00496
G1 X89.748 Y106.915 F9000
;TYPE:Outer wall
G1 F1800
G1 X89.852 Y105.558 E.04627
G1 X90.043 Y104.23 E.04559
G1 X90.398 Y102.646 E.05518
G1 X90.685 Y101.626 E.03601
G1 X90.621 Y101.463 E.00595
G1 X84.027 Y94.828 E.31792
G1 X35.722 Y66.939 E1.89568
G1 X37.492 Y63.874 E.12031
G1 X85.797 Y91.762 E1.89568
G1 X94.884 Y94.167 E.31947
G1 X95.041 Y94.101 E.0058
G1 X95.95 Y93.169 E.04424
G1 X96.947 Y92.272 E.0456
G1 X98.002 Y91.442 E.04559
G1 X99.164 Y90.639 E.04802
G1 X99.215 Y90.484 E.00555
G1 X98.429 Y81.163 E.31792
G1 X79.352 Y28.749 E1.89568
G1 X82.678 Y27.539 E.12031
G1 X101.755 Y79.952 E1.89568
G1 X107.17 Y87.635 E.31945
G1 X107.335 Y87.685 E.00588
G1 X108.629 Y87.556 E.04418
G1 X109.97 Y87.51 E.0456
G1 X111.018 Y87.543 E.03563
G1 X112.717 Y87.684 E.05796
G1 X112.856 Y87.598 E.00555
G1 X118.245 Y79.952 E.31792
G1 X137.322 Y27.539 E1.89568
G1 X140.648 Y28.749 E.12031
G1 X121.571 Y81.163 E1.89568
G1 X120.781 Y90.529 E.31944
G1 X120.875 Y90.673 E.00587
G1 X121.998 Y91.442 E.04627
G1 X123.053 Y92.272 E.04559
G1 X124.247 Y93.371 E.05518
G1 X124.987 Y94.13 E.03601
G1 X125.16 Y94.155 E.00595
G1 X134.203 Y91.762 E.31792
G1 X182.508 Y63.874 E1.89568
G1 X184.278 Y66.939 E.12031
G1 X135.973 Y94.828 E1.89568
G1 X129.347 Y101.495 E.31947
G1 X129.326 Y101.666 E.00585
G1 X129.693 Y102.977 E.04627
G1 X129.967 Y104.29 E.04559
G1 X130.115 Y105.34 E.03604
G1 X130.262 Y106.966 E.05549
G1 X130.371 Y107.088 E.00555
G1 X138.837 Y111.067 E.31792
G1 X193.766 Y120.753 E1.89568
G1 X193.152 Y124.239 E.12031
G1 X138.222 Y114.553 E1.89568
G1 X128.861 Y115.401 E.31944
G1 X128.735 Y115.519 E.00587
G1 X128.173 Y116.759 E.04627
G1 X127.539 Y117.941 E.04559
G1 X126.98 Y118.836 E.03587
G1 X126.045 Y120.181 E.05566
G1 X126.05 Y120.344 E.00555
G1 X129.977 Y128.834 E.31792
G1 X165.83 Y171.561 E1.89568
G1 X163.118 Y173.837 E.12031
G1 X127.265 Y131.109 E1.89568
G1 X119.549 Y125.742 E.31944
G1 X119.377 Y125.751 E.00587
G1 X118.15 Y126.339 E.04627
G1 X116.904 Y126.837 E.04559
G1 X115.355 Y127.322 E.05518
G1 X114.328 Y127.584 E.03601
G1 X114.219 Y127.721 E.00595
G1 X111.77 Y136.749 E.31792
G1 X111.77 Y192.526 E1.89568
G1 X108.23 Y192.526 E.12031
M73 P1 R138
G1 X108.23 Y136.749 E1.89568
G1 X105.769 Y127.677 E.31947
G1 X105.633 Y127.574 E.0058
G1 X104.372 Y127.252 E.04424
G1 X103.096 Y126.837 E.04559
G1 X101.851 Y126.339 E.04559
G1 X100.574 Y125.734 E.04802
G1 X100.414 Y125.767 E.00555
G1 X92.735 Y131.109 E.31792
G1 X56.882 Y173.837 E1.89568
G1 X54.17 Y171.561 E.12031
G1 X90.023 Y128.834 E1.89568
G1 X93.969 Y120.303 E.31945
G1 X93.93 Y120.135 E.00588
G1 X93.172 Y119.079 E.04418
G1 X92.461 Y117.941 E.0456
G1 X91.966 Y117.017 E.03563
G1 X91.238 Y115.474 E.05796
G1 X91.094 Y115.397 E.00555
G1 X81.778 Y114.553 E.31792
G1 X26.848 Y124.239 E1.89568
G1 X26.234 Y120.753 E.12031
G1 X81.163 Y111.067 E1.89568
G1 X89.67 Y107.069 E.31944
G1 X89.73 Y106.951 E.00451
G1 E-.03333 F2100
;WIPE_START
G1 F1800
G1 X89.817 Y105.954 E-1.16667
;WIPE_END
G1 Z.6 F9000
G1 X106.633 Y107.636 Z.6
G1 Z.2
G1 E1.2 F2100
;TYPE:Inner wall
G1 F1800
G1 X106.657 Y107.518 E.00409
G1 X108.071 Y105.064 E.09626
G1 X108.259 Y104.86 E.00943
G1 X108.613 Y104.751 E.01257
G1 X111.387 Y104.751 E.09431
G1 X111.678 Y104.822 E.01016
G1 X111.901 Y105.02 E.01013
G1 X113.317 Y107.467 E.09608
G1 X113.399 Y107.733 E.00946
G1 X113.348 Y108.031 E.01028
G1 X111.929 Y110.496 E.09664
G1 X111.722 Y110.711 E.01016
G1 X111.44 Y110.806 E.01013
G1 X108.613 Y110.808 E.09608
G1 X108.342 Y110.747 E.00943
G1 X108.108 Y110.553 E.01034
G1 X106.683 Y108.092 E.09662
G1 X106.6 Y107.803 E.01023
G1 X106.626 Y107.675 E.00444
G1 X107.027 Y107.715 F9000
;TYPE:Outer wall
G1 F1800
G1 X108.432 Y105.272 E.09575
G1 X108.528 Y105.186 E.00438
G1 X109.22 Y105.168 E.02353
G1 X111.387 Y105.168 E.07367
G1 X111.543 Y105.238 E.00579
G1 X112.955 Y107.675 E.09575
G1 X112.975 Y107.839 E.0056
G1 X111.568 Y110.287 E.09596
G1 X111.43 Y110.387 E.00579
G1 X108.613 Y110.391 E.09575
G1 X108.461 Y110.326 E.0056
G1 X107.045 Y107.884 E.09596
G1 X107.031 Y107.754 E.00443
G1 E-.03333 F2100
;WIPE_START
G1 F1800
G1 X107.523 Y106.883 E-1.16667
;WIPE_END
G1 Z.6 F9000
G1 X192.469 Y121.117
G1 Z.6
G1 Z.2
G1 E1.2 F2100
;TYPE:Bottom surface
;WIDTH:0.460037
G1 F4800
G1 X192.851 Y121.499 E.01838
G1 X192.763 Y122.001 E.01731
G1 X191.984 Y121.222 E.03744
G1 X191.268 Y121.095 E.02472
G1 X192.674 Y122.502 E.06762
G1 X192.586 Y123.003 E.01731
G1 X190.551 Y120.969 E.0978
G1 X189.835 Y120.842 E.02472
G1 X192.297 Y123.305 E.11836
G1 X191.581 Y123.178 E.02472
G1 X189.119 Y120.716 E.11836
G1 X188.402 Y120.59 E.02472
G1 X190.865 Y123.052 E.11837
G1 X190.149 Y122.926 E.02472
G1 X187.686 Y120.463 E.11837
G1 X186.97 Y120.337 E.02472
G1 X189.433 Y122.8 E.11838
G1 X188.716 Y122.673 E.02472
G1 X186.254 Y120.21 E.11839
G1 X185.537 Y120.084 E.02472
G1 X188 Y122.547 E.11839
G1 X187.284 Y122.421 E.02472
G1 X184.821 Y119.958 E.1184
G1 X184.105 Y119.831 E.02472
G1 X186.568 Y122.294 E.1184
G1 X185.852 Y122.168 E.02472
G1 X183.388 Y119.705 E.11841
G1 X182.672 Y119.578 E.02472
G1 X185.136 Y122.042 E.11841
G1 X184.419 Y121.916 E.02472
G1 X181.956 Y119.452 E.11842
G1 X181.24 Y119.326 E.02472
G1 X183.703 Y121.789 E.11843
G1 X182.987 Y121.663 E.02472
G1 X180.523 Y119.199 E.11843
G1 X179.807 Y119.073 E.02472
G1 X182.271 Y121.537 E.11844
G1 X181.555 Y121.41 E.02472
G1 X179.091 Y118.946 E.11844
G1 X178.374 Y118.82 E.02472
G1 X180.839 Y121.284 E.11845
G1 X180.122 Y121.158 E.02472
G1 X177.658 Y118.694 E.11846
G1 X176.942 Y118.567 E.02472
G1 X179.406 Y121.032 E.11846
G1 X178.69 Y120.905 E.02472
G1 X176.225 Y118.441 E.11847
G1 X175.509 Y118.314 E.02472
G1 X177.974 Y120.779 E.11847
G1 X177.258 Y120.653 E.02472
G1 X174.793 Y118.188 E.11848
G1 X174.077 Y118.062 E.02472
G1 X176.541 Y120.527 E.11849
G1 X175.825 Y120.4 E.02472
G1 X173.36 Y117.935 E.11849
G1 X172.644 Y117.809 E.02472
G1 X175.109 Y120.274 E.1185
G1 X174.393 Y120.148 E.02472
G1 X171.928 Y117.682 E.1185
G1 X171.211 Y117.556 E.02472
G1 X173.677 Y120.021 E.11851
G1 X172.961 Y119.895 E.02472
G1 X170.495 Y117.43 E.11852
G1 X169.779 Y117.303 E.02472
G1 X172.244 Y119.769 E.11852
G1 X171.528 Y119.643 E.02472
G1 X169.062 Y117.177 E.11853
G1 X168.346 Y117.05 E.02472
G1 X170.812 Y119.516 E.11853
G1 X170.096 Y119.39 E.02472
G1 X167.63 Y116.924 E.11854
G1 X166.914 Y116.798 E.02472
G1 X169.38 Y119.264 E.11854
G1 X168.664 Y119.137 E.02472
G1 X166.197 Y116.671 E.11855
M73 P1 R137
G1 X165.481 Y116.545 E.02472
G1 X167.947 Y119.011 E.11856
G1 X167.231 Y118.885 E.02472
G1 X164.765 Y116.418 E.11856
G1 X164.048 Y116.292 E.02472
G1 X166.515 Y118.759 E.11857
G1 X165.799 Y118.632 E.02472
G1 X163.332 Y116.166 E.11857
G1 X162.616 Y116.039 E.02472
G1 X165.083 Y118.506 E.11858
G1 X164.367 Y118.38 E.02472
G1 X161.9 Y115.913 E.11859
G1 X161.183 Y115.786 E.02472
G1 X163.65 Y118.253 E.11859
G1 X162.934 Y118.127 E.02472
G1 X160.467 Y115.66 E.1186
G1 X159.751 Y115.534 E.02472
G1 X162.218 Y118.001 E.1186
G1 X161.502 Y117.875 E.02472
G1 X159.034 Y115.407 E.11861
G1 X158.318 Y115.281 E.02472
G1 X160.786 Y117.748 E.11862
G1 X160.069 Y117.622 E.02472
G1 X157.602 Y115.154 E.11862
G1 X156.885 Y115.028 E.02472
G1 X159.353 Y117.496 E.11863
G1 X158.637 Y117.37 E.02472
G1 X156.169 Y114.902 E.11863
G1 X155.453 Y114.775 E.02472
G1 X157.921 Y117.243 E.11864
G1 X157.205 Y117.117 E.02472
G1 X154.737 Y114.649 E.11865
G1 X154.02 Y114.522 E.02472
G1 X156.489 Y116.991 E.11865
G1 X155.772 Y116.864 E.02472
G1 X153.304 Y114.396 E.11866
G1 X152.588 Y114.27 E.02472
G1 X155.056 Y116.738 E.11866
G1 X154.34 Y116.612 E.02472
G1 X151.871 Y114.143 E.11867
G1 X151.155 Y114.017 E.02472
G1 X153.624 Y116.486 E.11867
G1 X152.908 Y116.359 E.02472
G1 X150.439 Y113.89 E.11868
G1 X149.722 Y113.764 E.02472
G1 X152.192 Y116.233 E.11869
G1 X151.475 Y116.107 E.02472
G1 X149.006 Y113.637 E.11869
G1 X148.29 Y113.511 E.02472
G1 X150.759 Y115.98 E.1187
G1 X150.043 Y115.854 E.02472
G1 X147.574 Y113.385 E.1187
G1 X146.857 Y113.258 E.02472
G1 X149.327 Y115.728 E.11871
G1 X148.611 Y115.602 E.02472
G1 X146.141 Y113.132 E.11872
G1 X145.425 Y113.005 E.02472
G1 X147.895 Y115.475 E.11872
G1 X147.178 Y115.349 E.02472
G1 X144.708 Y112.879 E.11873
G1 X143.992 Y112.753 E.02472
G1 X146.462 Y115.223 E.11873
G1 X145.746 Y115.096 E.02472
G1 X143.276 Y112.626 E.11874
G1 X142.56 Y112.5 E.02472
G1 X145.03 Y114.97 E.11875
G1 X144.314 Y114.844 E.02472
G1 X141.843 Y112.373 E.11875
G1 X141.127 Y112.247 E.02472
G1 X143.598 Y114.718 E.11876
G1 X142.881 Y114.591 E.02472
G1 X140.411 Y112.121 E.11876
G1 X139.694 Y111.994 E.02472
G1 X142.165 Y114.465 E.11877
G1 X141.449 Y114.339 E.02472
G1 X138.978 Y111.868 E.11878
G1 X138.602 Y111.801 E.01299
G1 X138.074 Y111.554 E.0198
G1 X140.733 Y114.212 E.12779
G1 X140.017 Y114.086 E.02472
G1 X136.963 Y111.033 E.14678
G1 X135.852 Y110.511 E.04172
G1 X139.3 Y113.96 E.16577
G1 X138.584 Y113.834 E.02472
G1 X134.741 Y109.99 E.18476
G1 X133.629 Y109.469 E.04172
G1 X137.963 Y113.802 E.20829
G1 X137.422 Y113.851 E.01846
G1 X132.518 Y108.947 E.23571
G1 X131.407 Y108.426 E.04172
G1 X137.054 Y114.073 E.27143
G1 E-.7625 F2100
;WIPE_START
G1 F4800
G1 X136.347 Y113.366 E-.4375
;WIPE_END
G1 Z.6 F9000
G1 X181.756 Y64.982 Z.6
G1 Z.2
G1 E1.2 F2100
G1 F4800
G1 X182.941 Y66.167 E.05696
G1 X183.224 Y66.657 E.01924
G1 X182.981 Y66.797 E.00952
G1 X181.519 Y65.335 E.07027
G1 X181.145 Y65.551 E.01468
G1 X182.607 Y67.013 E.07027
G1 X182.233 Y67.229 E.01468
G1 X180.771 Y65.767 E.07028
G1 X180.397 Y65.983 E.01468
G1 X181.859 Y67.445 E.07028
G1 X181.485 Y67.661 E.01468
G1 X180.023 Y66.199 E.07028
G1 X179.649 Y66.414 E.01468
G1 X181.111 Y67.877 E.07029
G1 X180.737 Y68.093 E.01468
G1 X179.275 Y66.63 E.07029
G1 X178.901 Y66.846 E.01468
G1 X180.363 Y68.309 E.07029
G1 X179.989 Y68.524 E.01468
G1 X178.527 Y67.062 E.07029
G1 X178.153 Y67.278 E.01468
G1 X179.615 Y68.74 E.0703
G1 X179.241 Y68.956 E.01468
G1 X177.779 Y67.494 E.0703
G1 X177.405 Y67.71 E.01468
G1 X178.867 Y69.172 E.0703
G1 X178.493 Y69.388 E.01468
G1 X177.031 Y67.926 E.07031
G1 X176.657 Y68.141 E.01468
G1 X178.119 Y69.604 E.07031
G1 X177.746 Y69.82 E.01468
G1 X176.283 Y68.357 E.07031
G1 X175.909 Y68.573 E.01468
G1 X177.372 Y70.036 E.07032
G1 X176.998 Y70.252 E.01468
G1 X175.535 Y68.789 E.07032
G1 X175.161 Y69.005 E.01468
G1 X176.624 Y70.468 E.07032
G1 X176.25 Y70.684 E.01468
G1 X174.787 Y69.221 E.07032
G1 X174.413 Y69.437 E.01468
G1 X175.876 Y70.9 E.07033
G1 X175.502 Y71.116 E.01468
G1 X174.039 Y69.653 E.07033
G1 X173.665 Y69.868 E.01468
G1 X175.128 Y71.332 E.07033
G1 X174.754 Y71.548 E.01468
G1 X173.291 Y70.084 E.07034
G1 X172.917 Y70.3 E.01468
G1 X174.38 Y71.763 E.07034
G1 X174.006 Y71.979 E.01468
G1 X172.543 Y70.516 E.07034
G1 X172.169 Y70.732 E.01468
G1 X173.632 Y72.195 E.07034
G1 X173.258 Y72.411 E.01468
G1 X171.795 Y70.948 E.07035
G1 X171.421 Y71.164 E.01468
G1 X172.884 Y72.627 E.07035
